X: 62
T: No_25_Closing_Song_of_Dance.krn
N: Derived from No_25_Closing_Song_of_Dance.krn
%%abc-version 2.0
%%abcx-abcm2ps-target-version 5.9.1 (29 Sep 2008)
%%abc-creator hum2abc beta
%%abcx-conversion-date 2019/03/15 08:35:44
%%humdrum-veritas 3510404290
%%humdrum-veritas-data 1377012290
%%linebreak <none>
%%barnumbers 0
L: 1/8
M: 2/4
K: G clef=bass
[K:clef=bass][M:2/4]z2z z/ B,/ ]|:  
B,3/F,/ F,G, | 
E,E, E, z/ E,/ | 
E,2E, z/ B,/ | 
B,3/F,/ F,G, | 
E,E, E, E,// z// E,/ | 
E,2E,/ z/ G, | 
G,F, G, z/ E,/ | 
E,E, E,/ z/ E, | 
E,F, G, z/ E,/ | 
E,E, E,/ z/ E, | 
E,F, G, z/ E,/ | 
E,E, E,/ z/ E, | 
E,F, G, z/ E,/ | 
E,E, E, z/ B,/ :|]  
E,E, E, z |]  



